Dominus_Dark_Funeral/22/apps/wmtweaks.svg

<svg xmlns="http://www.w3.org/2000/svg" width="24" height="24" viewBox="0 0 6.35 6.35"><defs><linearGradient id="b"><stop offset="0" stop-color="#e6e6e6"/><stop offset="1" stop-color="#4d4d4d"/></linearGradient><linearGradient id="a"><stop offset="0"/><stop offset="1" stop-opacity="0"/></linearGradient></defs><path d="M.36.15V4.6h3.4l1.6 1.6c.16-.22.32-.37.47-.6l-1-1H6V.15zm.23 1.02h5.17v3.25h-1.1L3.3 3.07a1.57 1.57 0 0 1-.38-.51.78.78 0 0 0-.07-.58c-.12-.24-.4-.43-.68-.54a.06.06 0 0 0-.06.03.06.06 0 0 0-.01.07l.34.62c.03.05.02.12-.03.2a.7.7 0 0 1-.24.2.72.72 0 0 1-.31.1c-.1 0-.16-.02-.2-.08l-.35-.63a.06.06 0 0 0-.04-.03l-.06.03v.02c-.08.29-.04.63.08.86.18.3.54.46.9.4.14.04.34.15.57.38l.81.81H.6z" fill="#e6e6e6"/></svg>

<?xml version="1.0" encoding="UTF-8" standalone="no"?>
<svg
   xmlns:dc="http://purl.org/dc/elements/1.1/"
   xmlns:cc="http://creativecommons.org/ns#"
   xmlns:rdf="http://www.w3.org/1999/02/22-rdf-syntax-ns#"
   xmlns:svg="http://www.w3.org/2000/svg"
   xmlns="http://www.w3.org/2000/svg"
   xmlns:sodipodi="http://sodipodi.sourceforge.net/DTD/sodipodi-0.dtd"
   xmlns:inkscape="http://www.inkscape.org/namespaces/inkscape"
   width="24"
   height="24"
   viewBox="0 0 6.35 6.35"
   version="1.1"
   id="svg16"
   sodipodi:docname="wmtweaks.svg"
   inkscape:version="0.92.4 (5da689c313, 2019-01-14)">
  <metadata
     id="metadata20">
    <rdf:RDF>
      <cc:Work
         rdf:about="">
        <dc:format>image/svg+xml</dc:format>
        <dc:type
           rdf:resource="http://purl.org/dc/dcmitype/StillImage" />
        <dc:title></dc:title>
      </cc:Work>
    </rdf:RDF>
  </metadata>
  <sodipodi:namedview
     pagecolor="#ffffff"
     bordercolor="#666666"
     borderopacity="1"
     objecttolerance="10"
     gridtolerance="10"
     guidetolerance="10"
     inkscape:pageopacity="0"
     inkscape:pageshadow="2"
     inkscape:window-width="1138"
     inkscape:window-height="480"
     id="namedview18"
     showgrid="false"
     inkscape:zoom="9.8333333"
     inkscape:cx="1.0677966"
     inkscape:cy="12"
     inkscape:window-x="0"
     inkscape:window-y="25"
     inkscape:window-maximized="0"
     inkscape:current-layer="svg16" />
  <defs
     id="defs12">
    <linearGradient
       id="b">
      <stop
         offset="0"
         stop-color="#e6e6e6"
         id="stop2" />
      <stop
         offset="1"
         stop-color="#4d4d4d"
         id="stop4" />
    </linearGradient>
    <linearGradient
       id="a">
      <stop
         offset="0"
         id="stop7" />
      <stop
         offset="1"
         stop-opacity="0"
         id="stop9" />
    </linearGradient>
  </defs>
  <path
     d="M 0.36,0.15 V 4.6 h 3.4 l 1.6,1.6 C 5.52,5.98 5.68,5.83 5.83,5.6 l -1,-1 H 6 V 0.15 Z M 0.59000003,1.17 H 5.76 V 4.42 H 4.66 L 3.3,3.07 A 1.57,1.57 0 0 1 2.92,2.56 0.78,0.78 0 0 0 2.85,1.98 C 2.73,1.74 2.45,1.55 2.17,1.44 A 0.06,0.06 0 0 0 2.11,1.47 0.06,0.06 0 0 0 2.1,1.54 L 2.44,2.16 C 2.47,2.21 2.46,2.28 2.41,2.36 A 0.7,0.7 0 0 1 2.17,2.56 0.72,0.72 0 0 1 1.86,2.66 C 1.76,2.66 1.7,2.64 1.66,2.58 L 1.31,1.95 A 0.06,0.06 0 0 0 1.27,1.92 L 1.21,1.95 V 1.97 C 1.13,2.26 1.17,2.6 1.29,2.83 c 0.18,0.3 0.54,0.46 0.9,0.4 0.14,0.04 0.34,0.15 0.57,0.38 L 3.57,4.42 H 0.60000003 Z"
     id="path14"
     inkscape:connector-curvature="0"
     style="fill:#e6e6e6" />
</svg>
